icons/headphone.svg

<svg width="18" height="18" viewBox="0 0 18 18" fill="none" xmlns="http://www.w3.org/2000/svg">
<path d="M6.66667 14.7925C6.66615 14.2884 6.83192 13.7982 7.1383 13.3979C7.44467 12.9975 7.87454 12.7095 8.36128 12.5783C8.84801 12.4471 9.36443 12.4801 9.8305 12.6722C10.2966 12.8643 10.6863 13.2048 10.9392 13.6408C12.6808 12.8725 13.3333 11.6667 13.3333 9.375V6.875C13.3333 3.54833 11.4575 1.25 8.54167 1.25C5.62583 1.25 3.75 3.54917 3.75 6.875V9.79167C3.74978 9.95736 3.68386 10.1162 3.5667 10.2334C3.44954 10.3505 3.29069 10.4164 3.125 10.4167H2.29167C1.68423 10.416 1.10184 10.1745 0.672238 9.74502C0.242635 9.31557 0.000882227 8.73327 0 8.12583L0 7.2925C0.000661301 6.68484 0.24229 6.10224 0.671894 5.67248C1.1015 5.24272 1.68401 5.00088 2.29167 5H2.69C3.32083 2.02417 5.48 0 8.54167 0C11.6033 0 13.7617 2.02417 14.3925 5H14.7908C15.3984 5.00088 15.9807 5.24261 16.4103 5.67219C16.8399 6.10177 17.0816 6.68415 17.0825 7.29167V8.125C17.0818 8.73258 16.8402 9.31509 16.4106 9.74472C15.9809 10.1743 15.3984 10.416 14.7908 10.4167H14.5333C14.5012 11.4037 14.17 12.3576 13.5837 13.1523C12.9974 13.9469 12.1836 14.5448 11.25 14.8667C11.2402 15.4745 10.9893 16.0534 10.5526 16.4763C10.1158 16.8991 9.52904 17.1311 8.92125 17.1213C8.31346 17.1114 7.73447 16.8605 7.31166 16.4238C6.88884 15.9871 6.65683 15.4003 6.66667 14.7925ZM7.91667 14.7925C7.91667 14.9985 7.97776 15.1999 8.09222 15.3712C8.20668 15.5425 8.36936 15.676 8.5597 15.7549C8.75004 15.8337 8.95949 15.8543 9.16155 15.8142C9.36362 15.774 9.54922 15.6747 9.6949 15.5291C9.84058 15.3834 9.93979 15.1978 9.97998 14.9957C10.0202 14.7937 9.99955 14.5842 9.92071 14.3939C9.84187 14.2035 9.70835 14.0408 9.53705 13.9264C9.36575 13.8119 9.16436 13.7508 8.95833 13.7508C8.68213 13.7511 8.41731 13.8609 8.22201 14.0562C8.0267 14.2515 7.91689 14.5163 7.91667 14.7925ZM14.5833 9.1675H14.7908C15.0672 9.1675 15.3322 9.05778 15.5277 8.86245C15.7232 8.66713 15.8331 8.40218 15.8333 8.12583V7.2925C15.8333 7.01616 15.7236 6.75112 15.5283 6.55564C15.333 6.36015 15.068 6.25022 14.7917 6.25H14.5833V9.1675ZM1.25 7.2925V8.12583C1.25044 8.40189 1.36036 8.6665 1.55563 8.86162C1.75091 9.05674 2.01561 9.16645 2.29167 9.16667H2.5V6.25H2.29167C2.01532 6.25022 1.75037 6.36015 1.55505 6.55564C1.35972 6.75112 1.25 7.01616 1.25 7.2925Z" fill="#1B8CFF"/>
</svg>

<svg xmlns="http://www.w3.org/2000/svg" width="18" height="18" fill="none"><path fill="#1B8CFF" d="M6.667 14.793a2.29 2.29 0 0 1 4.272-1.152c1.742-.768 2.394-1.974 2.394-4.266v-2.5c0-3.327-1.876-5.625-4.791-5.625-2.916 0-4.792 2.3-4.792 5.625v2.917a.626.626 0 0 1-.625.625h-.833A2.294 2.294 0 0 1 0 8.126v-.833A2.295 2.295 0 0 1 2.292 5h.398c.63-2.976 2.79-5 5.852-5 3.061 0 5.22 2.024 5.85 5h.399a2.295 2.295 0 0 1 2.291 2.292v.833a2.294 2.294 0 0 1-2.291 2.292h-.258a4.875 4.875 0 0 1-3.283 4.45 2.292 2.292 0 1 1-4.583-.075Zm1.25 0a1.042 1.042 0 1 0 2.083 0 1.042 1.042 0 0 0-2.083 0Zm6.666-5.625h.208a1.043 1.043 0 0 0 1.042-1.042v-.833a1.043 1.043 0 0 0-1.041-1.043h-.209v2.918ZM1.25 7.293v.833a1.043 1.043 0 0 0 1.042 1.04H2.5V6.25h-.208A1.042 1.042 0 0 0 1.25 7.293Z"/></svg>
